X:6446
T:Tell Her I Am
O:england
R:Jig
S:Paddy Canny and Peter O'Loughlin, Clare (fiddles)
N:As played (P O'L much the louder)
H:Played with 44
M:6/8
K:G
|: edB G3 | DED ~G3 | DED c2A | BGE E2d | edB G3 | DED ~G3 | AGF GBA
|1 GFE DBd :|2 GFE D3 |: ~B3 dBG | ~B3 dBG | A3 ABA | AGF E3 | ~B3 deg |
age d2B | cBA GBA | GFE D3 ::  efg efg | dBG (3.G.G.GG | eaa aga | bge e2d
|1 efg efg | dBG GBd | agf gba | gfe d3 :|2 def gaf | gfe d2B | cBA GBA | GFE D3 ||
